X: 33755
T: Rattlin' Bog, The
R: polka
M: 2/4
K: Dmajor
|:f2 f>e|dBB2|Addf|fee2|f2 f>e|dBB2|Aaaf|edd2:|
|:d/e/fde|d/e/fde|d/e/faa|fedd|
d/e/fde|d/e/fde|d/e/faa|fedd:|

